X:5
T:Baker's Buck
Z:Jack Campin  *  May 2000  *  http://www.campin.me.uk/
M:2/4
L:1/8
K:G
G>B dd      |c/B/A d2   |G>B dd       |c/B/A     G/F/E/D/|\
G>B dd      |c/B/A d2   |G>B dd       |ef        gz     :|
Be  e/d/e/f/|gf    e2   |Ad  d/^c/d/e/|f/d/e/^c/ d>c     |\
Be  e/d/e/f/|gf    eg/a/|ba  gf       |e/d/e/f/  g2     :|

